X:73
T: WOHL UNTER GRUENEN BAEUMELEIN
N: E0683B
O: Europa, Mitteleuropa, Deutschland, Oderbreg, Hohen - Saathen
R: Liebes - Lied, Leid, Klage
M: 2/4
L: 1/16
K: G
D2 | G3AB2c2 | d3BG4 |
B4d2ge | d4z2
d2 | e2edc2B2 | A3FD4 |
G4BAAF | G4z2

